X: 2
T:Humors of Bottle Hill (#182)
M:9/8
L:1/8
S:Sergt. James P. Walsh
K:G
F|G2 B E2 B BAG|F2 A D2 A AGF|G2 B E2 B BAG|Bcd AGF E2:||
A|B2 e eee efg|f2 d def afd|B2 e e2 f gfe|fef agf e2 d|
B2 e eee efg|f2 d ddd d2 f|a2 f g2 e e2 c|d2 B AGF E2||
%
% [SEE NOTES TO TUNE # 181, SPLASHING OF THE CHURN]

